images/decorative/skills/gulp-icon.svg

<svg width="512" height="512" fill="none" xmlns="http://www.w3.org/2000/svg"><g clip-path="url(#a)" fill-rule="evenodd" clip-rule="evenodd"><path d="m317.276 490.761 4.794-79.886 13.237-22.597s-30.129 12.325-80.569 12.325c-50.442 0-80.114-12.097-80.114-12.097l14.835 24.65 5.249 77.605c0 8.319 27.437 15.063 61.284 15.063 33.845 0 61.284-6.744 61.284-15.063ZM302.153 117.708l10.063-39.774 55.725-58.636-14.687-12.51-58.997 62.462-11.684 47.52c-8.465-.286-17.3-.439-26.389-.439-62.135 0-112.505 7.082-112.505 15.815 0 8.734 50.37 15.814 112.505 15.814 62.133 0 112.502-7.08 112.502-15.814 0-6.431-27.318-11.967-66.533-14.438Z" fill="#D34A47"/><path d="M296.299 139.983s-2.179.489-8.59.516c-6.412.027-10.965-.041-12.779-1.693-.487-.444-.754-1.325-.752-1.921.006-1.135.811-1.804 1.838-2.222l.971 1.523c-.423.145-.664.318-.665.501-.003.862 6.557 1.453 11.575 1.389 5.018-.062 11.082-.475 11.087-1.325 0-.257-.458-.499-1.256-.69l.966-1.512c1.301.403 2.436 1.183 2.433 2.533-.012 2.295-2.933 2.644-4.828 2.901Z" fill="#fff"/><path d="M367.831 19.413c1.401-1.618-.725-5.758-4.749-9.244-4.025-3.485-8.425-5-9.828-3.381-1.402 1.618.725 5.758 4.75 9.243 4.024 3.486 8.425 5.002 9.827 3.382ZM314.595 295.633c-1.32-12.706 27.794-31.109 20.322-31.698-16.085.919-24.09 18.849-32.183 37.629-2.965 6.882-13.113 36.23-19.768 32.617-6.654-3.611 8.626-27.745 12.909-42.077-4.942 3.624-23.065 17.704-27.735 4.518-7.509 6.377-23.554 9.832-21.744-6.92-3.995 7.076-12.96 16.955-23.722 12.85-14.132-5.389 8.189-50.408 13.739-48.137 5.552 2.27-1.12 12.526-2.867 16.508-3.843 8.764-8.282 19.782-5.316 22.037 5.08 3.864 18.905-14.617 19.213-15.024 2.585-3.416 9.952-25.765 15.889-23.198 5.937 2.566-14.809 32.074-7.052 37.93 1.565 1.182 7.966-.729 11.86-4.942 2.519-2.725 1.652-8.761 10.051-28.79 8.398-20.027 15.883-44.969 21.643-43.069 5.76 1.9 1.012 14.701-1.054 19.473-9.696 22.398-26.463 59.4-18.556 56.599 7.908-2.8 12.025-2.965 19.768-12.026s7.386-23.985 12.547-23.668c5.162.318 4.296 5.103 3.044 8.747 5.08-5.813 24.078-18.055 28.664-5.93 5.433 14.354-27.181 35.088-19.049 34.031 7.928-1.031 20.773-9.166 26.257-16.563l15.095-135.712s-15.19 12.571-111.827 12.571c-96.639 0-110.257-12.31-110.257-12.31l12.851 123.873c6.822-19.388 23.02-58.603 48.554-57.287 11.615.599 27.12 22.964 13.838 23.722-5.622.32-6.192-11.164-12.849-12.85-4.804-1.217-11.493 2.688-15.815 6.92-8.62 8.436-27.16 41.721-24.71 58.316 3.121 21.156 29.194-7.352 33.606-15.815 3.107-5.962 5.206-23.627 12.001-21.773 6.796 1.853-.593 20.083-5.519 36.2-5.533 18.098-8.442 37.189-15.378 34.993-6.936-2.194 4.362-25.558 3.953-29.652-6.519 6.015-18.53 21.243-33.896 13.706l7.982 76.924s21.213 16.761 85.115 16.761c63.902 0 85.9-16.5 85.9-16.5l9.911-89.096c-8.109 7.896-33.771 21.917-35.415 6.112Z" fill="#D34A47"/></g><defs><clipPath id="a"><path fill="#fff" transform="translate(143 6)" d="M0 0h227v500H0z"/></clipPath></defs></svg>

<svg width="512" height="512" viewBox="0 0 512 512" fill="none" xmlns="http://www.w3.org/2000/svg">
<g clip-path="url(#clip0_336_1520)">
<path fill-rule="evenodd" clip-rule="evenodd" d="M317.276 490.761L322.07 410.875L335.307 388.278C335.307 388.278 305.178 400.603 254.738 400.603C204.296 400.603 174.624 388.506 174.624 388.506L189.459 413.156L194.708 490.761C194.708 499.08 222.145 505.824 255.992 505.824C289.837 505.824 317.276 499.08 317.276 490.761Z" fill="#D34A47"/>
<path fill-rule="evenodd" clip-rule="evenodd" d="M302.153 117.708L312.216 77.9337L367.941 19.2977L353.254 6.78796L294.257 69.25L282.573 116.77C274.108 116.484 265.273 116.331 256.184 116.331C194.049 116.331 143.679 123.413 143.679 132.146C143.679 140.88 194.049 147.96 256.184 147.96C318.317 147.96 368.686 140.88 368.686 132.146C368.686 125.715 341.368 120.179 302.153 117.708Z" fill="#D34A47"/>
<path fill-rule="evenodd" clip-rule="evenodd" d="M296.299 139.983C296.299 139.983 294.12 140.472 287.709 140.499C281.297 140.526 276.744 140.458 274.93 138.806C274.443 138.362 274.176 137.481 274.178 136.885C274.184 135.75 274.989 135.081 276.016 134.663L276.987 136.186C276.564 136.331 276.323 136.504 276.322 136.687C276.319 137.549 282.879 138.14 287.897 138.076C292.915 138.014 298.979 137.601 298.984 136.751C298.984 136.494 298.526 136.252 297.728 136.061L298.694 134.549C299.995 134.952 301.13 135.732 301.127 137.082C301.115 139.377 298.194 139.726 296.299 139.983Z" fill="white"/>
<path fill-rule="evenodd" clip-rule="evenodd" d="M367.831 19.4134C369.232 17.7951 367.106 13.6555 363.082 10.1687C359.057 6.68375 354.657 5.16961 353.254 6.78799C351.852 8.40636 353.979 12.5459 358.004 16.0309C362.028 19.5168 366.429 21.0327 367.831 19.4134Z" fill="#D34A47"/>
<path fill-rule="evenodd" clip-rule="evenodd" d="M314.595 295.633C313.275 282.927 342.389 264.524 334.917 263.935C318.832 264.854 310.827 282.784 302.734 301.564C299.769 308.446 289.621 337.794 282.966 334.181C276.312 330.57 291.592 306.436 295.875 292.104C290.933 295.728 272.81 309.808 268.14 296.622C260.631 302.999 244.586 306.454 246.396 289.702C242.401 296.778 233.436 306.657 222.674 302.552C208.542 297.163 230.863 252.144 236.413 254.415C241.965 256.685 235.293 266.941 233.546 270.923C229.703 279.687 225.264 290.705 228.23 292.96C233.31 296.824 247.135 278.343 247.443 277.936C250.028 274.52 257.395 252.171 263.332 254.738C269.269 257.304 248.523 286.812 256.28 292.668C257.845 293.85 264.246 291.939 268.14 287.726C270.659 285.001 269.792 278.965 278.191 258.936C286.589 238.909 294.074 213.967 299.834 215.867C305.594 217.767 300.846 230.568 298.78 235.34C289.084 257.738 272.317 294.74 280.224 291.939C288.132 289.139 292.249 288.974 299.992 279.913C307.735 270.852 307.378 255.928 312.539 256.245C317.701 256.563 316.835 261.348 315.583 264.992C320.663 259.179 339.661 246.937 344.247 259.062C349.68 273.416 317.066 294.15 325.198 293.093C333.126 292.062 345.971 283.927 351.455 276.53L366.55 140.818C366.55 140.818 351.36 153.389 254.723 153.389C158.084 153.389 144.466 141.079 144.466 141.079L157.317 264.952C164.139 245.564 180.337 206.349 205.871 207.665C217.486 208.264 232.991 230.629 219.709 231.387C214.087 231.707 213.517 220.223 206.86 218.537C202.056 217.32 195.367 221.225 191.045 225.457C182.425 233.893 163.885 267.178 166.335 283.773C169.456 304.929 195.529 276.421 199.941 267.958C203.048 261.996 205.147 244.331 211.942 246.185C218.738 248.038 211.349 266.268 206.423 282.385C200.89 300.483 197.981 319.574 191.045 317.378C184.109 315.184 195.407 291.82 194.998 287.726C188.479 293.741 176.468 308.969 161.102 301.432L169.084 378.356C169.084 378.356 190.297 395.117 254.199 395.117C318.101 395.117 340.099 378.617 340.099 378.617L350.01 289.521C341.901 297.417 316.239 311.438 314.595 295.633Z" fill="#D34A47"/>
</g>
<defs>
<clipPath id="clip0_336_1520">
<rect width="227" height="500" fill="white" transform="translate(143 6)"/>
</clipPath>
</defs>
</svg>
